X: 285
T: Koga me mama rodila
B: incoming
M:2/4
L:1/8
Q: 1/4=104
K:Dm
V:1 
[Bd]g2f    |e2d2    |[A4d4]     |gf ed  |[Bd]e2d    |^c2B2  |[A4d4]     |[Ad]2[Ad]2|D[Ad]2[Ad]|A2[Ad]2|
V:2 
Z10        |
W: transcribed by Jutta Weber-Karn
W: http://www.folkloretanznoten.de/
W: converted to abc notation without the lyrics
% abcbook-tune_id 63cb082fa349a21afe1cbd8f
% abcbook-tune_composer_id 
% abcbook-boost 0
% abcbook-difficulty 0
% abcbook-tags balkan dances
% abcbook-tablature 
% abcbook-transpose 
% abcbook-tuning 
% abcbook-lastupdated 1674250287866
% abcbook-soundfonts 
% abcbook-repeats 1


